X:122
T:Fear A Figue
D:Horses for Courses by the Riverside Ceilidh Band
Z:Nigel Gatherer
M:4/4
L:1/8
K:A
A>Ac>e A>Ac>e|A>Ac>A F2 E2|A>Ac>e A>Ac>e|A>Ac>A B2 B2|
A>Ac>e A>Ac>e|A>Ac>A F2 E2|A>AA>A f>ec<A|B>AB<c A2 A2|]
A>AA>A A>AA>A|A>AA>A F2 E2|A>AA>A A>AA>A|A>AA>A c2 B2|
A>AA>A A>AA>A|A>AA>A F2 E2|A>AA>A f>ec<A|B>AB<c A2 A2|]
